packages/elvis-assets-icons/icons/svg/src/flag-color.svg

<svg width="24" height="24" viewBox="0 0 24 24" fill="none" xmlns="http://www.w3.org/2000/svg">
<path fill-rule="evenodd" clip-rule="evenodd" d="M8.09931 13.8208C6.84904 13.6618 5.57924 13.7714 4.37469 14.1422C3.97881 14.2641 3.55909 14.042 3.43721 13.6461C3.31533 13.2502 3.53745 12.8305 3.93333 12.7086C5.3418 12.275 6.82659 12.1469 8.28853 12.3328C9.75048 12.5187 11.1559 13.0143 12.4111 13.7867L12.4115 13.787C13.4591 14.4326 14.6296 14.8531 15.8485 15.0217C17.0674 15.1903 18.3081 15.1032 19.4915 14.7661C19.8899 14.6526 20.3048 14.8836 20.4183 15.282C20.5318 15.6803 20.3008 16.0953 19.9025 16.2087C18.5188 16.6029 17.0682 16.7046 15.643 16.5075C14.2179 16.3104 12.8494 15.8188 11.6246 15.064M8.09931 13.8208C9.34941 13.9797 10.5512 14.4035 11.6245 15.0639L8.09931 13.8208Z" fill="#29D305"/>
<path d="M0.75 24C0.336 24 0 23.664 0 23.25V0.75C0 0.336 0.336 0 0.75 0C1.164 0 1.5 0.336 1.5 0.75V2.63L3.684 1.959C4.672 1.655 5.698 1.501 6.731 1.501C8.65 1.501 10.528 2.032 12.161 3.038C13.557 3.897 15.166 4.351 16.812 4.351C17.635 4.351 18.452 4.237 19.24 4.012L21.609 3.335C21.776 3.288 21.948 3.263 22.121 3.263C22.623 3.263 23.094 3.458 23.448 3.811C23.804 4.164 24 4.635 24 5.136V16.864C24 17.697 23.441 18.438 22.64 18.667L19.653 19.521C18.732 19.783 17.779 19.916 16.82 19.916C14.892 19.916 13.009 19.384 11.375 18.376C9.978 17.516 8.372 17.062 6.731 17.062C5.847 17.062 4.97 17.194 4.125 17.454L1.5 18.262V23.25C1.5 23.664 1.164 24 0.75 24ZM6.731 15.562C8.65 15.562 10.527 16.093 12.161 17.099C13.56 17.961 15.171 18.416 16.82 18.416C17.641 18.416 18.455 18.302 19.241 18.079L22.228 17.225C22.388 17.179 22.5 17.031 22.5 16.864V5.137C22.5 5.037 22.461 4.943 22.39 4.872C22.319 4.801 22.225 4.762 22.124 4.762C22.089 4.762 22.054 4.767 22.02 4.776L19.652 5.453C18.73 5.716 17.774 5.85 16.812 5.85C14.887 5.85 13.006 5.319 11.374 4.315C9.977 3.455 8.371 3.001 6.73 3.001C5.846 3.001 4.969 3.133 4.124 3.393L1.5 4.199V16.693L3.684 16.021C4.672 15.717 5.697 15.562 6.731 15.562Z" fill="black"/>
</svg>

<svg width="24" height="24" fill="none" xmlns="http://www.w3.org/2000/svg"><path fill-rule="evenodd" clip-rule="evenodd" d="M8.1 13.07a8.86 8.86 0 00-3.725.322.75.75 0 11-.442-1.433 10.36 10.36 0 018.478 1.078 8.869 8.869 0 007.08.98.75.75 0 01.412 1.442 10.364 10.364 0 01-8.278-1.145m-3.526-1.243a8.858 8.858 0 013.526 1.243l-3.526-1.243z" fill="#29D305"/><path d="M.75 24a.75.75 0 01-.75-.75V.75a.75.75 0 011.5 0v1.88l2.184-.671a10.355 10.355 0 018.477 1.079 8.87 8.87 0 007.079.974l2.369-.677a1.867 1.867 0 011.839.476c.356.353.552.824.552 1.325v11.728c0 .833-.559 1.574-1.36 1.803l-2.987.854a10.362 10.362 0 01-8.278-1.145 8.853 8.853 0 00-7.25-.922l-2.625.808v4.988a.75.75 0 01-.75.75zm5.981-8.438c1.919 0 3.796.531 5.43 1.537a8.874 8.874 0 007.08.98l2.987-.854a.377.377 0 00.272-.361V5.137a.373.373 0 00-.48-.361l-2.368.677a10.372 10.372 0 01-8.278-1.138 8.853 8.853 0 00-7.25-.922L1.5 4.199v12.494l2.184-.672a10.352 10.352 0 013.047-.459z" fill="#000"/></svg>
